X: 120014
T: WHATS A' THE STEER
Q: "Highland Schottische."
R: Schottische.
%R: shottish
B: James Kerr "Merry Melodies" v.1 p.20 s.0 #14
Z: 2017 John Chambers <jc:trillian.mit.edu>
M: C
L: 1/8
K: G
|: G>A |\
vB2uB>uA B2(B<d) | B2B>A B2B>c |\
vd>ve (d<B) e2ud>uB | d>e (d<B) A2 ::\
B>A |\
G>A (G<E) G2B>A | G>A (G<E) G2G>A |\
(B<d) e>f g2f>e |[1 (d<B) G>B A2 :|[2 (d<B) B>A G2 |]

%%sep 1 1 500
%%sep 1 1 500

